svgs/sharp-regular/explosion.svg

<svg xmlns="http://www.w3.org/2000/svg" viewBox="0 0 576 512"><!--! Font Awesome Pro 6.6.0 by @fontawesome - https://fontawesome.com License - https://fontawesome.com/license (Commercial License) Copyright 2024 Fonticons, Inc. --><path d="M312 24l0-24L264 0l0 24 0 48 0 24 48 0 0-24 0-48zM24 464L0 464l0 48 24 0 528 0 24 0 0-48-24 0-162.8 0c-10.8-45.9-52-80-101.2-80s-90.4 34.1-101.2 80L24 464zm213.4 0c9-18.9 28.3-32 50.6-32s41.6 13.1 50.6 32l-101.2 0zM32 336l29.5 48 29.5 48 56.4 0-29.5-48 10.1 0 53.6 0-5.9-53.3-4.9-43.8L198 304.4 252 339 270 277.5l17.6-59.9 10.2 35.6 24.9 87.3 58.1-69.7 54.6-65.5L401.8 322.8 384.4 384l63.6 0 10.1 0-29.5 48 56.4 0 29.5-48L544 336l-46.1 0-10.3 0L448 336l13.7-48 49.7-173.9L544 0 468 91.2 381.2 195.4 344 240l-16-55.8L312 128l-48 0-25.9 88L224 264l-42.1-27L164 225.4 112 192l6.8 61.5 3.8 34.5 5.3 48-39.6 0-8.7 0L32 336z"/></svg>

<svg xmlns="http://www.w3.org/2000/svg" viewBox="0 0 576 512"><!--! Font Awesome Pro 6.5.2 by @fontawesome - https://fontawesome.com License - https://fontawesome.com/license (Commercial License) Copyright 2024 Fonticons, Inc. --><path d="M312 24V0H264V24 72 96h48V72 24zM24 464H0v48H24 552h24V464H552 389.2c-10.8-45.9-52-80-101.2-80s-90.4 34.1-101.2 80H24zm213.4 0c9-18.9 28.3-32 50.6-32s41.6 13.1 50.6 32H237.4zM32 336l29.5 48 29.5 48h56.4l-29.5-48H128h53.6l-5.9-53.3-4.9-43.8L198 304.4 252 339 270 277.5l17.6-59.9 10.2 35.6 24.9 87.3 58.1-69.7 54.6-65.5L401.8 322.8 384.4 384H448h10.1l-29.5 48h56.4l29.5-48L544 336H497.9 487.6 448l13.7-48 49.7-173.9L544 0 468 91.2 381.2 195.4 344 240l-16-55.8L312 128H264l-25.9 88L224 264l-42.1-27L164 225.4 112 192l6.8 61.5 3.8 34.5 5.3 48H88.4 79.7 32z"/></svg>
